svgs/sharp-light/apostrophe.svg

<svg xmlns="http://www.w3.org/2000/svg" viewBox="0 0 192 512"><!--! Font Awesome Pro 6.6.0 by @fontawesome - https://fontawesome.com License - https://fontawesome.com/license (Commercial License) Copyright 2024 Fonticons, Inc. --><path d="M80 352c61.9 0 112-50.1 112-112l0-16 0-32 0-64 0-64 0-32-32 0L32 32 0 32 0 64 0 192l0 32 32 0 128 0 0 16c0 44.2-35.8 80-80 80l-16 0 0 32 16 0zm80-160L32 192 32 64l128 0 0 64 0 64z"/></svg>

<svg xmlns="http://www.w3.org/2000/svg" viewBox="0 0 192 512"><!--! Font Awesome Pro 6.4.2 by @fontawesome - https://fontawesome.com License - https://fontawesome.com/license (Commercial License) Copyright 2023 Fonticons, Inc. --><path d="M80 352c61.9 0 112-50.1 112-112V224 192 128 64 32H160 32 0V64 192v32H32 160v16c0 44.2-35.8 80-80 80H64v32H80zm80-160H32V64H160v64 64z"/></svg>
